svg/fluentui-system-icons/ic_fluent_dismiss_20_regular.svg

<svg width="20" height="20" viewBox="0 0 20 20" fill="none" xmlns="http://www.w3.org/2000/svg">
<path d="M4.08859 4.21569L4.14645 4.14645C4.32001 3.97288 4.58944 3.9536 4.78431 4.08859L4.85355 4.14645L10 9.293L15.1464 4.14645C15.32 3.97288 15.5894 3.9536 15.7843 4.08859L15.8536 4.14645C16.0271 4.32001 16.0464 4.58944 15.9114 4.78431L15.8536 4.85355L10.707 10L15.8536 15.1464C16.0271 15.32 16.0464 15.5894 15.9114 15.7843L15.8536 15.8536C15.68 16.0271 15.4106 16.0464 15.2157 15.9114L15.1464 15.8536L10 10.707L4.85355 15.8536C4.67999 16.0271 4.41056 16.0464 4.21569 15.9114L4.14645 15.8536C3.97288 15.68 3.9536 15.4106 4.08859 15.2157L4.14645 15.1464L9.293 10L4.14645 4.85355C3.97288 4.67999 3.9536 4.41056 4.08859 4.21569L4.14645 4.14645L4.08859 4.21569Z" fill="#212121"/>
</svg>

<svg xmlns="http://www.w3.org/2000/svg" width="20" height="20"><path d="m4.089 4.216.057-.07a.5.5 0 0 1 .638-.057l.07.057L10 9.293l5.146-5.147a.5.5 0 0 1 .638-.057l.07.057a.5.5 0 0 1 .057.638l-.057.07L10.707 10l5.147 5.146a.5.5 0 0 1 .057.638l-.057.07a.5.5 0 0 1-.638.057l-.07-.057L10 10.707l-5.146 5.147a.5.5 0 0 1-.638.057l-.07-.057a.5.5 0 0 1-.057-.638l.057-.07L9.293 10 4.146 4.854a.5.5 0 0 1-.057-.638l.057-.07-.057.07Z"/></svg>
